icon-themes/breeze_svg/cmd/lc_subtitleparastyle.svg

<svg viewBox="0 0 24 24" xmlns="http://www.w3.org/2000/svg"><path d="m4 4v2h6v14h2v-14h6v-2z" fill="#4d4d4d"/><path d="m18.298828 12c-.37167 0-.707617.037759-1.007812.113281-.300195.071926-.578295.17584-.832032.3125-.253736.13666-.573019.370311-.958984.701172l.900391 1.074219c.310916-.258935.608631-.459353.894531-.59961.2859-.140256.580997-.208984.884766-.208984.289473 0 .519866.075827.691406.230469.175114.154641.263672.390555.263672.707031 0 .212183-.040518.417438-.119141.615234-.078622.197798-.206078.412724-.384766.646485-.178687.230164-.560057.645509-1.142578 1.246094l-1.966797 2.001953v1.160156h5.478516v-1.402344h-3.414062v-.076172l1.007812-.955078c.671865-.618566 1.13984-1.09523 1.404297-1.429687.268032-.334458.464763-.658134.589844-.97461.128654-.320071.191406-.662162.191406-1.02539 0-.417172-.10327-.78766-.310547-1.111328-.207277-.323669-.497803-.576044-.873047-.75586-.375243-.179815-.807271-.269531-1.296875-.269531z" fill="#1d99f3"/></svg>

<svg xmlns="http://www.w3.org/2000/svg" viewBox="0 0 24 24">
 <path 
     style="fill:#4d4d4d" 
     d="M 4 4 L 4 6 L 10 6 L 10 20 L 12 20 L 12 6 L 18 6 L 18 4 L 4 4 z "
     />
 <path 
     style="fill:#1d99f3" 
     d="M 18.298828 12 C 17.927158 12 17.591211 12.037759 17.291016 12.113281 C 16.990821 12.185207 16.712721 12.289121 16.458984 12.425781 C 16.205248 12.562441 15.885965 12.796092 15.5 13.126953 L 16.400391 14.201172 C 16.711307 13.942237 17.009022 13.741819 17.294922 13.601562 C 17.580822 13.461306 17.875919 13.392578 18.179688 13.392578 C 18.469161 13.392578 18.699554 13.468405 18.871094 13.623047 C 19.046208 13.777688 19.134766 14.013602 19.134766 14.330078 C 19.134766 14.542261 19.094248 14.747516 19.015625 14.945312 C 18.937003 15.14311 18.809547 15.358036 18.630859 15.591797 C 18.452172 15.821961 18.070802 16.237306 17.488281 16.837891 L 15.521484 18.839844 L 15.521484 20 L 21 20 L 21 18.597656 L 17.585938 18.597656 L 17.585938 18.521484 L 18.59375 17.566406 C 19.265615 16.94784 19.73359 16.471176 19.998047 16.136719 C 20.266079 15.802261 20.46281 15.478585 20.587891 15.162109 C 20.716545 14.842038 20.779297 14.499947 20.779297 14.136719 C 20.779297 13.719547 20.676027 13.349059 20.46875 13.025391 C 20.261473 12.701722 19.970947 12.449347 19.595703 12.269531 C 19.22046 12.089716 18.788432 12 18.298828 12 z "
     />
 </svg>
